X:2
T:Princess Royal (BC)
C:Abingdon
M:4/4
L:1/8
Q:150
A:Abingdon
P:A(A2B2)3A
B:Esperance Book
K:F
P:A
cB|A2G2 F2cB|ABGA F2fe|d2c2 B2d2|cdcB A2c2|
B2A2 G2F2|EFGE C2cB|AGFA G2E2|F6||
P:B
c2|d2c2 d2e2|f2c2 f3c |fedc BAGF|E2C2 C4  |
F2F2 G4  |A2F2 f4  |f2c2 d4  |c2A2 B4  |
A2B2 c2A2|GAGE C2cB|AGFA G2E2|F6||
